X: 25584
T: Market House, The
R: jig
M: 6/8
K: Eminor
|:~E3 GFE|edB GFE|DEF GFE|~F3 AFD|
~E3 GFE|edB GFE|cBA BAG|1 FED E2D:|2 FED E2d||
|:~g3 fed|~B3 GFE|Add ede|fdd Add|
[1 ~g3 fed|~B3 GFE|~B3 dBB|eBB fBB:|
[2 ege ded|BdB BAB|cBA BAG|FED E2D||

